X:1
T:Title
%%score ( 1 2 ) ( 3 4 )
L:1/8
M:4/4
K:C
V:1 treble nm="Choir Aahs, Staff"
V:2 treble 
V:3 bass nm="Choir Aahs, Staff-1"
V:4 bass 
V:1
 [CE]2 [CE][DF] [EG]2 [EG]2 | [FA]2 [FA][Ac] [FA][EG] [CE]2 | [EG]2 [EG]2 [FA]2 [EG]2 | %3
w: By~Charles~E.~Pollock,~1925 * * * *|||
 [Gc]2 [Ge]2 [Gd]4 | [Ge]2 [Ge][Fd] [Ec]2 [EG]2 | [FA]2 [FA][Ac] [FA][EG] [CE]2 | %6
w: |||
 [EG]2 G2 [FA]2 [Ad]2 | [Gc]2 [FB]2 [Ec]4 | [Gd]2 de [Gd]2 G2 | [Ge]2 [Gc]2 [Ac]2 [FA]2 | %10
w: ||||
 [EG]2 [EG]2 [FA]2 [EG]2 | [Gc]2 [Ge]2 [Gd]4 | [Ge]2 [Ge][Fd] [Ec]2 [EG]2 | %13
w: |||
 [FA]2 [FA][Ac] [FA][EG] [CE]2 | [EG]2 G2 [FA]2 [Ad]2 | [Gc]2 [FB]2 [Ec]4 |] %16
w: |||
V:2
 x8 | x8 | x8 | x8 | x8 | x8 | x8 | x8 | z2 G2 z4 | x8 | x8 | x8 | x8 | x8 | x8 | x8 |] %16
V:3
 [C,G,]2 [C,G,]2 [C,C]2 [C,C]2 | [F,C]2 [F,C]2 [C,C]2 [C,G,]2 | [C,C]2 [C,C]2 [C,C]2 [C,C]2 | %3
 [E,C]2 [C,C]2 [G,B,]4 | [C,C]2 [C,C]2 [C,C]2 [C,C]2 | [F,C]2 [F,C]2 [C,C]2 [C,G,]2 | %6
 [C,C]2 [E,C]2 [F,C]2 [D,F]2 | [G,E]2 [G,D]2 [C,C]4 | [G,B,]2 B,C [G,B,]2 [G,B,]2 | %9
 [C,C]2 [E,C]2 [F,C]2 [F,C]2 | [C,C]2 [C,C]2 [C,C]2 [C,C]2 | [E,C]2 [C,C]2 [G,B,]4 | %12
 [C,C]2 [C,C]2 [C,C]2 [C,C]2 | [F,C]2 [F,C]2 [C,C]2 [C,G,]2 | [C,C]2 [E,C]2 [F,C]2 [D,F]2 | %15
 [G,E]2 [G,D]2 [C,C]4 |] %16
V:4
 x8 | x8 | x8 | x8 | x8 | x8 | x8 | x8 | z2 G,2 z4 | x8 | x8 | x8 | x8 | x8 | x8 | x8 |] %16

